X:71
T:Will this please ye
M:6/8
L:1/8
B:Thompson's Compleat Collection of 200 Favourite Country Dances, vol. 2 (London, 1765)
Z:Transcribed and edited by Flynn Titford-Mock, 2007
Z:abc's:AK/Fiddler's Companion
K:Bb
B3 (A/B/c)A | BFD BFD | B3 (A/B/c)A | (B/c/d)B cAF | B3 (A/B/c)A | BFD BFD | EFG FED | [C2c2]c cdc :|
|: B2f fgf | fbf fdB | d2f fbf | cdB AGF | B2f fgf | fbf fdB | ece dBd | cdB AGF :|

